module-10/img/icon-svg/twitter.svg

<svg version="1.1" xmlns="http://www.w3.org/2000/svg"
width="28" height="24">
<path fill="rgb(243,129,129)" stroke="none" paint-order="stroke fill markers" fill-rule="evenodd" d=" M 18.512603759765625 1.600960612297058 C 20.547019958496094 1.5645604133605957 21.629745483398438 2.3061578273773193 22.66394805908203 3.248484969139099 C 23.541824340820312 3.1734189987182617 24.68268585205078 2.682847023010254 25.35468292236328 2.341349720954895 C 25.572463989257812 2.222633719444275 25.790359497070312 2.102860450744629 26.008026123046875 1.9842954874038696 C 25.624305725097656 3.021323561668396 25.10382843017578 3.83315372467041 24.304000854492188 4.449540495872498 C 24.126388549804688 4.585927963256836 23.950035095214844 4.771402835845947 23.727447509765625 4.858400821685791 C 23.727447509765625 4.862025737762451 23.727447509765625 4.866707921028137 23.727447509765625 4.870936989784241 C 24.867164611816406 4.859609127044678 25.80718231201172 4.345173120498657 26.700050354003906 4.066205620765686 C 26.700050354003906 4.0704346895217896 26.700050354003906 4.074512720108032 26.700050354003906 4.079345941543579 C 26.23107147216797 4.824417233467102 25.596267700195312 5.580816388130188 24.91900634765625 6.123194456100464 C 24.645721435546875 6.34008526802063 24.37232208251953 6.557127118110657 24.099037170410156 6.774017930030823 C 24.113914489746094 7.981114983558655 24.08118438720703 9.132629990577698 23.855506896972656 10.147153377532959 C 22.543899536132812 16.042022109031677 19.068443298339844 20.044382572174072 13.566810607910156 21.758665800094604 C 11.591331481933594 22.37444841861725 8.398773193359375 22.627135276794434 6.1353607177734375 22.06512224674225 C 5.0129241943359375 21.78675889968872 3.9990921020507812 21.47199535369873 3.047515869140625 21.05648934841156 C 2.5190277099609375 20.825249910354614 2.029449462890625 20.574979662895203 1.5612716674804688 20.289366483688354 C 1.4074630737304688 20.195873856544495 1.2537689208984375 20.102230191230774 1.0999603271484375 20.008737564086914 C 1.6104812622070312 20.02414345741272 2.2077484130859375 20.164911031723022 2.7784652709960938 20.07247567176819 C 3.2948226928710938 19.988951563835144 3.8012237548828125 20.011003136634827 4.27752685546875 19.906786799430847 C 5.4656524658203125 19.645641803741455 6.52056884765625 19.30112373828888 7.4294586181640625 18.769469380378723 C 7.87005615234375 18.51149618625641 8.538619995117188 18.209268808364868 8.851730346679688 17.83726179599762 C 8.261672973632812 17.847381353378296 7.726890563964844 17.710389733314514 7.288581848144531 17.556028723716736 C 5.589591979980469 16.9564071893692 4.6007080078125 15.853073358535767 3.9572067260742188 14.196033596992493 C 4.472076416015625 14.252672910690308 5.955116271972656 14.386794805526733 6.3019866943359375 14.094082832336426 C 5.6537933349609375 14.058286786079407 5.030548095703125 13.682805895805359 4.58514404296875 13.404442548751831 C 3.2183761596679688 12.549113392829895 2.1038360595703125 11.115157008171082 2.1121902465820312 8.907885193824768 C 2.2915191650390625 8.993221759796143 2.4709625244140625 9.078407287597656 2.6502914428710938 9.162988662719727 C 2.9936141967773438 9.307834267616272 3.3426589965820312 9.385316848754883 3.7522430419921875 9.470049262046814 C 3.9252777099609375 9.505694270133972 4.2711181640625 9.607040882110596 4.46978759765625 9.533183217048645 C 4.461204528808594 9.533183217048645 4.4526214599609375 9.533183217048645 4.44415283203125 9.533183217048645 C 4.179679870605469 9.226273655891418 3.7489242553710938 9.020559668540955 3.4831924438476562 8.690390229225159 C 2.6063461303710938 7.60080087184906 1.7845458984375 5.923521995544434 2.3044509887695312 3.925589084625244 C 2.4362869262695312 3.4188560247421265 2.6453704833984375 2.9719340801239014 2.8681869506835938 2.5588446855545044 C 2.8766555786132812 2.563073754310608 2.8852386474609375 2.5671517848968506 2.8938217163085938 2.571380853652954 C 2.99578857421875 2.785401940345764 3.2235260009765625 2.942028522491455 3.3678359985351562 3.1208577156066895 C 3.815643310546875 3.675771951675415 4.368049621582031 4.175255179405212 4.9309844970703125 4.615229368209839 C 6.848899841308594 6.115491509437561 8.576156616210938 7.036975383758545 11.350204467773438 7.719365835189819 C 12.053901672363281 7.892908692359924 12.867233276367188 8.02521812915802 13.707801818847656 8.026426434516907 C 13.471710205078125 7.338598608970642 13.547584533691406 6.2263535261154175 13.733436584472656 5.5605772733688354 C 14.200927734375 3.8873764276504517 15.21624755859375 2.681638717651367 16.706039428710938 2.0354974269866943 C 17.062179565429688 1.8805322647094727 17.457229614257812 1.7678577899932861 17.871963500976562 1.6772348880767822 C 18.08551025390625 1.6517094373703003 18.299057006835938 1.6260329484939575 18.512603759765625 1.600960612297058 Z"/>
</svg>

<svg xmlns="http://www.w3.org/2000/svg" width="28" height="24"><path fill="#F38181" paint-order="stroke fill markers" fill-rule="evenodd" d="M18.5126 1.601c2.0344-.0364 3.1171.7052 4.1513 1.6475.878-.075 2.0188-.5657 2.6908-.9072.2178-.1187.4357-.2384.6533-.357-.3837 1.037-.9042 1.8489-1.704 2.4652-.1776.1364-.354.3219-.5766.4089v.0125c1.1398-.0113 2.0798-.5257 2.9727-.8047v.0131c-.469.7451-1.1038 1.5015-1.781 2.0439l-.82.6508c.0148 1.2071-.018 2.3586-.2436 3.3732-1.3116 5.8948-4.787 9.8972-10.2887 11.6115-1.9755.6157-5.168.8684-7.4314.3064-1.1225-.2783-2.1363-.5931-3.0879-1.0086-.5285-.2313-1.018-.4815-1.4862-.7671L1.1 20.0087c.5105.0154 1.1077.1562 1.6785.0638.5163-.0835 1.0227-.0615 1.499-.1657 1.1882-.2612 2.243-.6057 3.152-1.1373.4406-.258 1.1091-.5602 1.4222-.9322-.59.01-1.1248-.127-1.5631-.2813-1.699-.5996-2.6879-1.703-3.3314-3.36.5149.0567 1.998.1908 2.3448-.102-.6482-.0357-1.2715-.4112-1.7169-.6896-1.3667-.8553-2.4813-2.2892-2.473-4.4965.1794.0853.3589.1705.5382.255.3433.145.6924.2224 1.102.3071.173.0357.5188.137.7175.0632h-.0256c-.2645-.307-.6953-.5126-.961-.8428-.8769-1.0896-1.6987-2.7669-1.1787-4.7648.1318-.5067.3409-.9537.5637-1.3668.0085.0043.017.0084.0256.0126.102.214.3297.3706.474.5495.4478.5549 1.0002 1.0544 1.5632 1.4943 1.9179 1.5003 3.6452 2.4218 6.4192 3.1042.7037.1735 1.517.3058 2.3576.307-.236-.6878-.1602-1.8.0256-2.4658.4675-1.6732 1.4828-2.879 2.9726-3.5251.3562-.155.7512-.2676 1.166-.3583.2135-.0255.427-.0512.6406-.0762z"/></svg>
